X:1
T:Flamenco Soleares Falseta
T:Flamenco Soleares Falseta 
T:Pulgar Falseta
T:= golpe
%%score { 1 | 2 }
L:1/8
Q:1/4=140
M:3/4
K:C
V:1 treble-8 nm="Guitar" snm="Guit."
V:2 tab stafflines=6 strings=E2,A2,D3,G3,B3,E4 nostems 
V:1
 (F,C) F"^...."(A ^G)F | E,e E^G Be | (F,C) F(A G)F | G,G B,F G2 | (G,B,) FG Bd | (cB) (A^G) FE | %6
 DC B,A, (^G,F,) | E,e E^G Be | (3(F,C)F (3A(cB) (3(A^G)F | E,e E^G Be | (3F,CF (3A(cB) (3(A^G)F | %11
 E,e E^G Be | (3F,CF (3ABe (3(fe)d | (3cBA (3(^GA)B (3(AG)F | (3EDC (3B,A,G, (3(F,^G,)F, | %15
 E,e E^G Be |] %16
V:2
 (!6!F,, !5!C,) !4!F, (!3!A, !3!^G,) !4!F, | !6!E,, !1!E !4!E, !3!^G, !2!B, !1!E | %2
 (!6!F,, !5!C,) !4!F, (!3!A, !3!G,) !4!F, | !6!G,, !3!G, !5!B,, !4!F, !3!G,2 | %4
 (!6!G,, !5!B,,) !4!F, !3!G, !2!B, !2!D | (!2!C !2!B,) (!3!A, !3!^G,) !4!F, !4!E, | %6
 !4!D, !5!C, !5!B,, !5!A,, (!6!^G,, !6!F,,) | !6!E,, !1!E !4!E, !3!^G, !2!B, !1!E | %8
 (3(!6!F,, !5!C,) !4!F, (3!3!A, (!2!C !2!B,) (3(!3!A, !3!^G,) !4!F, | %9
 !6!E,, !1!E !4!E, !3!^G, !2!B, !1!E | %10
 (3!6!F,, !5!C, !4!F, (3!3!A, (!2!C !2!B,) (3(!3!A, !3!^G,) !4!F, | %11
 !6!E,, !1!E !4!E, !3!^G, !2!B, !1!E | (3!6!F,, !5!C, !4!F, (3!3!A, !2!B, !1!E (3(!1!F !1!E) !2!D | %13
 (3!2!C !2!B, !3!A, (3(!3!^G, !3!A,) !2!B, (3(!3!A, !3!G,) !4!F, | %14
 (3!4!E, !4!D, !5!C, (3!5!B,, !5!A,, !6!G,, (3(!6!F,, !6!^G,,) !6!F,, | %15
 !6!E,, !1!E !4!E, !3!^G, !2!B, !1!E |] %16

